img/fab/call.svg

<svg width="119" height="191" viewBox="0 0 119 191" fill="none" xmlns="http://www.w3.org/2000/svg">
<path d="M107.38 36.9199H45.4699C40.7479 36.9199 36.9199 40.7479 36.9199 45.4699V179.31C36.9199 184.032 40.7479 187.86 45.4699 187.86H107.38C112.102 187.86 115.93 184.032 115.93 179.31V45.4699C115.93 40.7479 112.102 36.9199 107.38 36.9199Z" fill="#F2F2F2" fill-opacity="0.3"/>
<path d="M107.38 36.9199H45.4699C40.7479 36.9199 36.9199 40.7479 36.9199 45.4699V179.31C36.9199 184.032 40.7479 187.86 45.4699 187.86H107.38C112.102 187.86 115.93 184.032 115.93 179.31V45.4699C115.93 40.7479 112.102 36.9199 107.38 36.9199Z" stroke="url(#paint0_linear_512_1143)" stroke-width="6" stroke-miterlimit="10"/>
<path d="M69.8398 47.9004H87.3998" stroke="url(#paint1_linear_512_1143)" stroke-width="4" stroke-miterlimit="10"/>
<path d="M61.0703 49.4394C61.9208 49.4394 62.6103 48.7499 62.6103 47.8994C62.6103 47.0489 61.9208 46.3594 61.0703 46.3594C60.2198 46.3594 59.5303 47.0489 59.5303 47.8994C59.5303 48.7499 60.2198 49.4394 61.0703 49.4394Z" stroke="url(#paint2_linear_512_1143)" stroke-width="4" stroke-miterlimit="10"/>
<path d="M23.9502 41.4992C23.9528 36.8437 25.8041 32.3798 29.0969 29.0889C32.3898 25.7979 36.8547 23.9492 41.5102 23.9492" stroke="url(#paint3_linear_512_1143)" stroke-width="4" stroke-miterlimit="10"/>
<path d="M12.9697 41.5007C12.9724 33.9332 15.9804 26.6765 21.3324 21.3263C26.6844 15.9762 33.9422 12.9707 41.5097 12.9707" stroke="url(#paint4_linear_512_1143)" stroke-width="4" stroke-miterlimit="10"/>
<path d="M2 41.5C2.00265 31.023 6.16647 20.9761 13.5757 13.5687C20.985 6.16126 31.033 2 41.51 2" stroke="url(#paint5_linear_512_1143)" stroke-width="4" stroke-miterlimit="10"/>
<path d="M76.96 138.25C88.674 138.25 98.17 128.754 98.17 117.04C98.17 105.326 88.674 95.8301 76.96 95.8301C65.246 95.8301 55.75 105.326 55.75 117.04C55.75 128.754 65.246 138.25 76.96 138.25Z" stroke="url(#paint6_linear_512_1143)" stroke-width="5" stroke-miterlimit="10"/>
<path d="M78.9199 125.91L80.1099 121.91C80.1521 121.762 80.2492 121.636 80.3812 121.558C80.5133 121.48 80.6703 121.456 80.8199 121.49L86.5999 122.79C86.7393 122.816 86.8641 122.893 86.9507 123.005C87.0373 123.118 87.0797 123.258 87.0699 123.4L86.8999 127.15C86.8897 127.307 86.8199 127.455 86.7047 127.562C86.5895 127.67 86.4376 127.73 86.2799 127.73C81.0264 127.569 76.0321 125.41 72.3156 121.694C68.5991 117.977 66.4404 112.983 66.2799 107.73C66.2785 107.648 66.2933 107.567 66.3232 107.492C66.3532 107.416 66.3977 107.347 66.4544 107.288C66.511 107.23 66.5786 107.183 66.6534 107.151C66.7281 107.118 66.8084 107.101 66.8899 107.1H70.7199C70.8614 107.1 70.9982 107.15 71.1062 107.242C71.2141 107.333 71.2863 107.46 71.3099 107.6L72.3699 113.43C72.3975 113.579 72.3674 113.733 72.2858 113.861C72.2041 113.989 72.0769 114.082 71.9299 114.12L67.8399 115.12" stroke="url(#paint7_linear_512_1143)" stroke-width="4" stroke-linejoin="round"/>
<defs>
<linearGradient id="paint0_linear_512_1143" x1="33.9199" y1="112.39" x2="118.94" y2="112.39" gradientUnits="userSpaceOnUse">
<stop stop-color="#808080"/>
<stop offset="1" stop-color="#CCCCCC"/>
</linearGradient>
<linearGradient id="paint1_linear_512_1143" x1="-nan" y1="-nan" x2="-nan" y2="-nan" gradientUnits="userSpaceOnUse">
<stop stop-color="#808080"/>
<stop offset="1" stop-color="#CCCCCC"/>
</linearGradient>
<linearGradient id="paint2_linear_512_1143" x1="57.5303" y1="47.8994" x2="64.6003" y2="47.8994" gradientUnits="userSpaceOnUse">
<stop stop-color="#808080"/>
<stop offset="1" stop-color="#CCCCCC"/>
</linearGradient>
<linearGradient id="paint3_linear_512_1143" x1="21.9502" y1="31.7292" x2="41.5102" y2="31.7292" gradientUnits="userSpaceOnUse">
<stop stop-color="#808080"/>
<stop offset="1" stop-color="#CCCCCC"/>
</linearGradient>
<linearGradient id="paint4_linear_512_1143" x1="10.9697" y1="26.2407" x2="41.5097" y2="26.2407" gradientUnits="userSpaceOnUse">
<stop stop-color="#808080"/>
<stop offset="1" stop-color="#CCCCCC"/>
</linearGradient>
<linearGradient id="paint5_linear_512_1143" x1="2.41587e-07" y1="20.75" x2="41.51" y2="20.75" gradientUnits="userSpaceOnUse">
<stop stop-color="#808080"/>
<stop offset="1" stop-color="#CCCCCC"/>
</linearGradient>
<linearGradient id="paint6_linear_512_1143" x1="53.24" y1="117.04" x2="100.67" y2="117.04" gradientUnits="userSpaceOnUse">
<stop offset="0.03" stop-color="#CCCCCC"/>
<stop offset="0.4" stop-color="#808080"/>
<stop offset="1" stop-color="#CCCCCC"/>
</linearGradient>
<linearGradient id="paint7_linear_512_1143" x1="64.2399" y1="117.38" x2="89.0699" y2="117.38" gradientUnits="userSpaceOnUse">
<stop stop-color="#B3B3B3"/>
<stop offset="1" stop-color="#E6E6E6"/>
</linearGradient>
</defs>
</svg>

<svg width="119" height="191" fill="none" xmlns="http://www.w3.org/2000/svg"><path d="M107.38 36.92H45.47a8.55 8.55 0 00-8.55 8.55v133.84a8.55 8.55 0 008.55 8.55h61.91a8.55 8.55 0 008.55-8.55V45.47a8.55 8.55 0 00-8.55-8.55z" fill="#F2F2F2" fill-opacity=".3"/><path d="M107.38 36.92H45.47a8.55 8.55 0 00-8.55 8.55v133.84a8.55 8.55 0 008.55 8.55h61.91a8.55 8.55 0 008.55-8.55V45.47a8.55 8.55 0 00-8.55-8.55z" stroke="url(#paint0_linear_512_1143)" stroke-width="6" stroke-miterlimit="10"/><path d="M69.84 47.9H87.4" stroke="url(#paint1_linear_512_1143)" stroke-width="4" stroke-miterlimit="10"/><path d="M61.07 49.44a1.54 1.54 0 100-3.08 1.54 1.54 0 000 3.08z" stroke="url(#paint2_linear_512_1143)" stroke-width="4" stroke-miterlimit="10"/><path d="M23.95 41.5a17.56 17.56 0 0117.56-17.55" stroke="url(#paint3_linear_512_1143)" stroke-width="4" stroke-miterlimit="10"/><path d="M12.97 41.5a28.54 28.54 0 0128.54-28.53" stroke="url(#paint4_linear_512_1143)" stroke-width="4" stroke-miterlimit="10"/><path d="M2 41.5A39.51 39.51 0 0141.51 2" stroke="url(#paint5_linear_512_1143)" stroke-width="4" stroke-miterlimit="10"/><path d="M76.96 138.25c11.714 0 21.21-9.496 21.21-21.21s-9.496-21.21-21.21-21.21-21.21 9.496-21.21 21.21 9.496 21.21 21.21 21.21z" stroke="url(#paint6_linear_512_1143)" stroke-width="5" stroke-miterlimit="10"/><path d="M78.92 125.91l1.19-4a.6.6 0 01.71-.42l5.78 1.3a.578.578 0 01.47.61l-.17 3.75a.618.618 0 01-.62.58 20.645 20.645 0 01-20-20 .615.615 0 01.373-.579.603.603 0 01.237-.051h3.83a.595.595 0 01.59.5l1.06 5.83a.599.599 0 01-.44.69l-4.09 1" stroke="url(#paint7_linear_512_1143)" stroke-width="4" stroke-linejoin="round"/><defs><linearGradient id="paint0_linear_512_1143" x1="33.92" y1="112.39" x2="118.94" y2="112.39" gradientUnits="userSpaceOnUse"><stop stop-color="gray"/><stop offset="1" stop-color="#CCC"/></linearGradient><linearGradient id="paint1_linear_512_1143" x1="-nan" y1="-nan" x2="-nan" y2="-nan" gradientUnits="userSpaceOnUse"><stop stop-color="gray"/><stop offset="1" stop-color="#CCC"/></linearGradient><linearGradient id="paint2_linear_512_1143" x1="57.53" y1="47.899" x2="64.6" y2="47.899" gradientUnits="userSpaceOnUse"><stop stop-color="gray"/><stop offset="1" stop-color="#CCC"/></linearGradient><linearGradient id="paint3_linear_512_1143" x1="21.95" y1="31.729" x2="41.51" y2="31.729" gradientUnits="userSpaceOnUse"><stop stop-color="gray"/><stop offset="1" stop-color="#CCC"/></linearGradient><linearGradient id="paint4_linear_512_1143" x1="10.97" y1="26.241" x2="41.51" y2="26.241" gradientUnits="userSpaceOnUse"><stop stop-color="gray"/><stop offset="1" stop-color="#CCC"/></linearGradient><linearGradient id="paint5_linear_512_1143" x1="0" y1="20.75" x2="41.51" y2="20.75" gradientUnits="userSpaceOnUse"><stop stop-color="gray"/><stop offset="1" stop-color="#CCC"/></linearGradient><linearGradient id="paint6_linear_512_1143" x1="53.24" y1="117.04" x2="100.67" y2="117.04" gradientUnits="userSpaceOnUse"><stop offset=".03" stop-color="#CCC"/><stop offset=".4" stop-color="gray"/><stop offset="1" stop-color="#CCC"/></linearGradient><linearGradient id="paint7_linear_512_1143" x1="64.24" y1="117.38" x2="89.07" y2="117.38" gradientUnits="userSpaceOnUse"><stop stop-color="#B3B3B3"/><stop offset="1" stop-color="#E6E6E6"/></linearGradient></defs></svg>
